!!!OTL: Narrant vaticinia
**kern
*staff1
=1-
*clefF4
*k[b-]
*met(c|)
*M2/2
2.F\
4G\
2A\
1F
2G\
1F
=2
2B-\
1A
1G
2G\
2.F\
4E\
=3
2D\
1F
2C/
1D
=4
!!linebreak:original
1F
2F\
1G
2G\
2.D\
4E\
=5
2F\
1C
1.F
2F\
1G
2G\
2.D\
4E\
=6
2F\
0C
1D
4BB-/
4C/
4D\
4E\
2F\
=7
1C
0FF
==
*-
!!title: @{OTL}, @{GTL}, ed. @{ENC}
!!!pag:
!!!GTL: Hymnbook D
!!!EFL: 
!!!YEM: Creative Commons CC/BY/NC/SA 4.0
!!!ENC: Marcin Konik
!!!END: 2015-0m-dd
!!!EED: Marcin Konik
!!!EEV: 
!!!ONB: Encoded in vim by Marcin Konik
!!!CharacterEncoding: utf-8
!!!RDF**kern: l=long note in original notation
!!!RDF**kern: i=editorial accidental
!!muse2ps: z14jc180F
!!!COM: Anonim
!!!CDT: [?]
!!!TXO: Polish
!!!ODT: 
!!!GTL: Hymnbook D
!!!ARL: Opactwo św. Wojciecha, Staniątki 
!!!voices:	1
